Collapse/img/other/icon_youtube.svg

<svg width="22" height="16" viewBox="0 0 22 16" fill="none" xmlns="http://www.w3.org/2000/svg">
<path d="M21.065 1.895C20.4683 0.8335 19.8206 0.63825 18.502 0.564C17.1847 0.474625 13.8724 0.4375 11.0027 0.4375C8.12762 0.4375 4.81387 0.474625 3.498 0.562625C2.18212 0.63825 1.53312 0.832125 0.930875 1.895C0.31625 2.95512 0 4.78113 0 7.99588C0 7.99863 0 8 0 8C0 8.00275 0 8.00413 0 8.00413L0 8.00688C0 11.2079 0.31625 13.0476 0.930875 14.0968C1.53312 15.1582 2.18075 15.3507 3.49662 15.4401C4.81388 15.5171 8.12762 15.5625 11.0027 15.5625C13.8724 15.5625 17.1847 15.5171 18.5034 15.4415C19.822 15.3521 20.4696 15.1596 21.0664 14.0981C21.6865 13.049 22 11.2092 22 8.00825C22 8.00825 22 8.00413 22 8.00138C22 8.00138 22 7.99863 22 7.99725C22 4.78113 21.6865 2.95512 21.065 1.895ZM8.25 12.125L8.25 3.875L15.125 8L8.25 12.125Z" fill="#9FA4B0"/>
</svg>

<svg width="22" height="16" fill="none" xmlns="http://www.w3.org/2000/svg"><path d="M21.065 1.895C20.468.833 19.821.638 18.502.564c-1.317-.09-4.63-.126-7.5-.126-2.874 0-6.188.037-7.504.125C2.182.638 1.533.833.931 1.895.316 2.955 0 4.781 0 7.995v.012c0 3.2.316 5.04.93 6.09.603 1.061 1.25 1.254 2.567 1.343 1.317.077 4.63.123 7.506.123 2.87 0 6.182-.046 7.5-.122 1.319-.089 1.967-.281 2.563-1.343.62-1.049.934-2.889.934-6.09v-.011c0-3.216-.314-5.042-.935-6.102zM8.25 12.125v-8.25L15.125 8 8.25 12.125z" fill="#9FA4B0"/></svg>
